X:019
T:The Tailor Made
C:Nigel Gatherer
M:6/8
L:1/8
K:Bminor
B/c/|dcB f2 B|F2 B Bcd|efg fed|cBA edc|dcB f2 B|F2 B Bcd|
efg f2 e|dBB B2::f|b2 f gfe|d2 B Bcd|cBA eAA|fAA e2 a|
b2 f gfe|fdB Bcd|cBA f2 e|dBB B2 f|b2 f gfe|d2 B Bcd|
cBA eAA|fAA e2 c|dcB edc|fed cde|fed cBA|FBB B2:|
<end>
<start>
